X:1
T:Title
%%score { 1 | 2 }
L:1/8
Q:1/4=94
M:2/4
K:Bb
V:1 treble nm="Grand Piano"
V:2 bass 
V:1
 [DF]2 [DF]>[EG] | [DF]>[CE] D2 | E2 G>G | [DF]4 | A2 A>B | c>B A2 | [DFB]2 [CFA]>[B,=EG] | %7
w: J.~M.~Stillman * *|||||||
 [A,F]4 | [Fd]2 [Fd]>[Ge] | [Fd]>[Ec] [DB]2 | [EB]2 [GB]>[Gc] | [GB]>[FA] [EG]2 | [=Ec]2 [EB][EG] | %13
w: ||||||
 A>G F2 | [FB]2 c>c | d4 | [Fd]2 [Fc][FB] | c>B G2 | F2 GA | [DB]4 |] %20
w: |||||||
V:2
 [B,,B,]2 [B,,B,]>[B,,B,] | [B,,B,]>[B,,F,] [B,,F,B,]2 | [E,G,B,]2 [E,B,E]>[E,B,E] | [B,,B,]4 | %4
 [F,CF]2 [F,CF]>[F,DF] | [F,EF]>[F,DF] [F,CF]2 | B,,2 C,>C, | F,4 | [B,,B,]2 [B,,B,]>[B,,B,] | %9
 [B,,B,]>[B,,F,] [B,,F,]2 | [E,G,]2 [E,B,]>[E,B,] | [E,B,]>[E,B,] [E,B,]2 | [C,C]2 [C,C][C,C] | %13
 [F,CF]>[F,B,=E] [F,A,]2 | [D,B,]2[K:treble] [F,A,F]>[F,A,F] | [B,F]4 | [B,,B,]2 [C,A,][D,B,] | %17
 [E,G,E]>[E,G,E] [E,B,E]2 | [F,A,E]2 [F,B,E][F,CE] | [B,,B,]4 |] %20

